X:355
T:B355-  One Night When All the Village Slept, or Martellus
S:(1st/3)
Q:1/4=120
L:1/4
M:3/4
K:Gm
G|A2=B|c3/2c/ A3/4B/4|^F3/2A/A|A3/2A/ (d/A/)|\
B3/2B/ c/d/|e3/2d/ c/B/|A3/2A/(d|d/)e/c3/2d/|\
d2z/d/|=B2z/B/|c2^c|(d3/2 ^c/)d|\
^c2z|A2(d|d/)e/d3/2c/|B3/2d/ d/e/|\
(fe/d/4d/4 B3/4)A/4|G2d|e2f|c3/2c/ c3/4=B/4|\
c2A|(B/c/ d/)G/ G3/4^F/4|.G2|]
